src/assets-renderer/gnome-shell/assets/keyboard-enter-symbolic.svg

<svg version="1.1" viewBox="0 0 16 16" xmlns="http://www.w3.org/2000/svg"><g fill="#2e3436" font-weight="400"><path d="M11.994 3v4.004c.002.666-.183.72-.445.852-.262.13-.555.144-.555.144H4v2h6.994s.71.014 1.45-.355c.738-.37 1.552-1.313 1.55-2.645V3z" font-family="sans-serif" overflow="visible" style="font-feature-settings:normal;font-variant-alternates:normal;font-variant-caps:normal;font-variant-ligatures:normal;font-variant-numeric:normal;font-variant-position:normal;isolation:auto;mix-blend-mode:normal;shape-padding:0;text-decoration-color:#000;text-decoration-line:none;text-decoration-style:solid;text-indent:0;text-orientation:mixed;text-transform:none;white-space:normal"/><path d="M6 12v-1c0-.257-.13-.528-.313-.719l-1.28-1.303 1.28-1.26C5.87 7.529 6 7.258 6 7V6H5c-.31 0-.552.09-.75.281L1.594 8.978l2.656 2.74c.198.192.44.282.75.282z" color="#bebebe" font-family="Bitstream Vera Sans" overflow="visible" style="text-decoration-line:none;text-indent:0;text-transform:none"/></g></svg>

<?xml version="1.0" encoding="UTF-8" standalone="no"?>
<svg
   viewBox="0 0 20.008678 20.010565"
   version="1.1"
   id="svg4540"
   sodipodi:docname="keyboard-enter-symbolic.svg"
   width="20.008678"
   height="20.010565"
   inkscape:version="1.2.2 (b0a8486541, 2022-12-01)"
   xmlns:inkscape="http://www.inkscape.org/namespaces/inkscape"
   xmlns:sodipodi="http://sodipodi.sourceforge.net/DTD/sodipodi-0.dtd"
   xmlns="http://www.w3.org/2000/svg"
   xmlns:svg="http://www.w3.org/2000/svg">
  <defs
     id="defs4544" />
  <sodipodi:namedview
     id="namedview4542"
     pagecolor="#ffffff"
     bordercolor="#000000"
     borderopacity="0.25"
     inkscape:showpageshadow="2"
     inkscape:pageopacity="0.0"
     inkscape:pagecheckerboard="0"
     inkscape:deskcolor="#d1d1d1"
     showgrid="false"
     inkscape:zoom="9.5625"
     inkscape:cx="11.189542"
     inkscape:cy="8.3137255"
     inkscape:window-width="841"
     inkscape:window-height="865"
     inkscape:window-x="804"
     inkscape:window-y="8"
     inkscape:window-maximized="0"
     inkscape:current-layer="svg4540" />
  <rect
     width="19.008854"
     height="19.01074"
     x="0.49991199"
     y="0.49991199"
     fill="#181818"
     stroke="#0c0c0c"
     stroke-linejoin="round"
     stroke-width="0.999824"
     color="#202020"
     rx="2.8384669"
     ry="2.8841498"
     id="rect2866" />
  <g
     fill="#2e3436"
     font-weight="400"
     id="g4538"
     transform="translate(2.5272145,1.743844)"
     style="fill:#e9e9e9;fill-opacity:1">
    <path
       d="M 11.994,3 V 7.004 C 11.996,7.67 11.811,7.724 11.549,7.856 11.287,7.986 10.994,8 10.994,8 H 4 v 2 h 6.994 c 0,0 0.71,0.014 1.45,-0.355 C 13.182,9.275 13.996,8.332 13.994,7 V 3 Z"
       font-family="sans-serif"
       overflow="visible"
       style="font-variant-ligatures:normal;font-variant-position:normal;font-variant-caps:normal;font-variant-numeric:normal;font-variant-alternates:normal;font-feature-settings:normal;text-indent:0;text-decoration-line:none;text-decoration-style:solid;text-decoration-color:#000000;text-transform:none;text-orientation:mixed;white-space:normal;shape-padding:0;isolation:auto;mix-blend-mode:normal;fill:#e9e9e9;fill-opacity:1"
       id="path4534" />
    <path
       d="M 6,12 V 11 C 6,10.743 5.87,10.472 5.687,10.281 L 4.407,8.978 5.687,7.718 C 5.87,7.529 6,7.258 6,7 V 6 H 5 C 4.69,6 4.448,6.09 4.25,6.281 L 1.594,8.978 4.25,11.718 C 4.448,11.91 4.69,12 5,12 Z"
       color="#bebebe"
       font-family="'Bitstream Vera Sans'"
       overflow="visible"
       style="text-indent:0;text-decoration-line:none;text-transform:none;fill:#e9e9e9;fill-opacity:1"
       id="path4536" />
  </g>
</svg>
